svg/icon.svg

<?xml version="1.0" encoding="UTF-8" standalone="no"?>
<svg
   xmlns:dc="http://purl.org/dc/elements/1.1/"
   xmlns:cc="http://creativecommons.org/ns#"
   xmlns:rdf="http://www.w3.org/1999/02/22-rdf-syntax-ns#"
   xmlns:svg="http://www.w3.org/2000/svg"
   xmlns="http://www.w3.org/2000/svg"
   xmlns:sodipodi="http://sodipodi.sourceforge.net/DTD/sodipodi-0.dtd"
   xmlns:inkscape="http://www.inkscape.org/namespaces/inkscape"
   inkscape:export-ydpi="768.00006"
   inkscape:export-xdpi="768.00006"
   inkscape:export-filename="D:\Downloads\logo512.png"
   sodipodi:docname="icon.svg"
   inkscape:version="1.0.2 (e86c870879, 2021-01-15, custom)"
   id="svg8"
   version="1.1"
   viewBox="0 0 16.933333 16.933334"
   height="64"
   width="64">
  <defs
     id="defs2">
    <rect
       id="rect848"
       height="16.906861"
       width="16.906861"
       y="0.01323625"
       x="0.01323625" />
    <filter
       style="color-interpolation-filters:sRGB;"
       inkscape:label="Drop Shadow"
       id="filter1122">
      <feFlood
         flood-opacity="1"
         flood-color="rgb(0,0,0)"
         result="flood"
         id="feFlood1112" />
      <feComposite
         in="flood"
         in2="SourceGraphic"
         operator="in"
         result="composite1"
         id="feComposite1114" />
      <feGaussianBlur
         in="composite1"
         stdDeviation="0.2"
         result="blur"
         id="feGaussianBlur1116" />
      <feOffset
         dx="0"
         dy="0"
         result="offset"
         id="feOffset1118" />
      <feComposite
         in="SourceGraphic"
         in2="offset"
         operator="over"
         result="fbSourceGraphic"
         id="feComposite1120" />
      <feColorMatrix
         result="fbSourceGraphicAlpha"
         in="fbSourceGraphic"
         values="0 0 0 -1 0 0 0 0 -1 0 0 0 0 -1 0 0 0 0 1 0"
         id="feColorMatrix1304" />
      <feFlood
         id="feFlood1306"
         flood-opacity="0.6"
         flood-color="rgb(0,0,0)"
         result="flood"
         in="fbSourceGraphic" />
      <feComposite
         in2="fbSourceGraphic"
         id="feComposite1308"
         in="flood"
         operator="in"
         result="composite1" />
      <feGaussianBlur
         id="feGaussianBlur1310"
         in="composite1"
         stdDeviation="0.2"
         result="blur" />
      <feOffset
         id="feOffset1312"
         dx="0"
         dy="0"
         result="offset" />
      <feComposite
         in2="offset"
         id="feComposite1314"
         in="fbSourceGraphic"
         operator="over"
         result="composite2" />
    </filter>
    <filter
       style="color-interpolation-filters:sRGB;"
       inkscape:label="Drop Shadow"
       id="filter1122-7">
      <feFlood
         flood-opacity="1"
         flood-color="rgb(0,0,0)"
         result="flood"
         id="feFlood1112-3" />
      <feComposite
         in="flood"
         in2="SourceGraphic"
         operator="in"
         result="composite1"
         id="feComposite1114-9" />
      <feGaussianBlur
         in="composite1"
         stdDeviation="0.2"
         result="blur"
         id="feGaussianBlur1116-3" />
      <feOffset
         dx="0"
         dy="0"
         result="offset"
         id="feOffset1118-1" />
      <feComposite
         in="SourceGraphic"
         in2="offset"
         operator="over"
         result="fbSourceGraphic"
         id="feComposite1120-1" />
      <feColorMatrix
         result="fbSourceGraphicAlpha"
         in="fbSourceGraphic"
         values="0 0 0 -1 0 0 0 0 -1 0 0 0 0 -1 0 0 0 0 1 0"
         id="feColorMatrix1316" />
      <feFlood
         id="feFlood1318"
         flood-opacity="0.6"
         flood-color="rgb(0,0,0)"
         result="flood"
         in="fbSourceGraphic" />
      <feComposite
         in2="fbSourceGraphic"
         id="feComposite1320"
         in="flood"
         operator="in"
         result="composite1" />
      <feGaussianBlur
         id="feGaussianBlur1322"
         in="composite1"
         stdDeviation="0.2"
         result="blur" />
      <feOffset
         id="feOffset1324"
         dx="0"
         dy="0"
         result="offset" />
      <feComposite
         in2="offset"
         id="feComposite1326"
         in="fbSourceGraphic"
         operator="over"
         result="composite2" />
    </filter>
    <filter
       style="color-interpolation-filters:sRGB;"
       inkscape:label="Drop Shadow"
       id="filter1122-8">
      <feFlood
         flood-opacity="1"
         flood-color="rgb(0,0,0)"
         result="flood"
         id="feFlood1112-8" />
      <feComposite
         in="flood"
         in2="SourceGraphic"
         operator="in"
         result="composite1"
         id="feComposite1114-5" />
      <feGaussianBlur
         in="composite1"
         stdDeviation="0.2"
         result="blur"
         id="feGaussianBlur1116-8" />
      <feOffset
         dx="0"
         dy="0"
         result="offset"
         id="feOffset1118-8" />
      <feComposite
         in="SourceGraphic"
         in2="offset"
         operator="over"
         result="fbSourceGraphic"
         id="feComposite1120-4" />
      <feColorMatrix
         result="fbSourceGraphicAlpha"
         in="fbSourceGraphic"
         values="0 0 0 -1 0 0 0 0 -1 0 0 0 0 -1 0 0 0 0 1 0"
         id="feColorMatrix1340" />
      <feFlood
         id="feFlood1342"
         flood-opacity="0.6"
         flood-color="rgb(0,0,0)"
         result="flood"
         in="fbSourceGraphic" />
      <feComposite
         in2="fbSourceGraphic"
         id="feComposite1344"
         in="flood"
         operator="in"
         result="composite1" />
      <feGaussianBlur
         id="feGaussianBlur1346"
         in="composite1"
         stdDeviation="0.2"
         result="blur" />
      <feOffset
         id="feOffset1348"
         dx="0"
         dy="0"
         result="offset" />
      <feComposite
         in2="offset"
         id="feComposite1350"
         in="fbSourceGraphic"
         operator="over"
         result="composite2" />
    </filter>
    <filter
       style="color-interpolation-filters:sRGB"
       inkscape:label="Drop Shadow"
       id="filter1122-2">
      <feFlood
         flood-opacity="1"
         flood-color="rgb(0,0,0)"
         result="flood"
         id="feFlood1112-7" />
      <feComposite
         in="flood"
         in2="SourceGraphic"
         operator="in"
         result="composite1"
         id="feComposite1114-7" />
      <feGaussianBlur
         in="composite1"
         stdDeviation="0.2"
         result="blur"
         id="feGaussianBlur1116-5" />
      <feOffset
         dx="0"
         dy="0"
         result="offset"
         id="feOffset1118-3" />
      <feComposite
         in="SourceGraphic"
         in2="offset"
         operator="over"
         result="composite2"
         id="feComposite1120-6" />
    </filter>
    <filter
       style="color-interpolation-filters:sRGB;"
       inkscape:label="Drop Shadow"
       id="filter1122-9">
      <feFlood
         flood-opacity="1"
         flood-color="rgb(0,0,0)"
         result="flood"
         id="feFlood1112-1" />
      <feComposite
         in="flood"
         in2="SourceGraphic"
         operator="in"
         result="composite1"
         id="feComposite1114-3" />
      <feGaussianBlur
         in="composite1"
         stdDeviation="0.2"
         result="blur"
         id="feGaussianBlur1116-7" />
      <feOffset
         dx="0"
         dy="0"
         result="offset"
         id="feOffset1118-5" />
      <feComposite
         in="SourceGraphic"
         in2="offset"
         operator="over"
         result="fbSourceGraphic"
         id="feComposite1120-68" />
      <feColorMatrix
         result="fbSourceGraphicAlpha"
         in="fbSourceGraphic"
         values="0 0 0 -1 0 0 0 0 -1 0 0 0 0 -1 0 0 0 0 1 0"
         id="feColorMatrix1328" />
      <feFlood
         id="feFlood1330"
         flood-opacity="0.6"
         flood-color="rgb(0,0,0)"
         result="flood"
         in="fbSourceGraphic" />
      <feComposite
         in2="fbSourceGraphic"
         id="feComposite1332"
         in="flood"
         operator="in"
         result="composite1" />
      <feGaussianBlur
         id="feGaussianBlur1334"
         in="composite1"
         stdDeviation="0.2"
         result="blur" />
      <feOffset
         id="feOffset1336"
         dx="0"
         dy="0"
         result="offset" />
      <feComposite
         in2="offset"
         id="feComposite1338"
         in="fbSourceGraphic"
         operator="over"
         result="composite2" />
    </filter>
    <filter
       style="color-interpolation-filters:sRGB;"
       inkscape:label="Drop Shadow"
       id="filter1122-5">
      <feFlood
         flood-opacity="1"
         flood-color="rgb(0,0,0)"
         result="flood"
         id="feFlood1112-6" />
      <feComposite
         in="flood"
         in2="SourceGraphic"
         operator="in"
         result="composite1"
         id="feComposite1114-0" />
      <feGaussianBlur
         in="composite1"
         stdDeviation="0.2"
         result="blur"
         id="feGaussianBlur1116-9" />
      <feOffset
         dx="0"
         dy="0"
         result="offset"
         id="feOffset1118-2" />
      <feComposite
         in="SourceGraphic"
         in2="offset"
         operator="over"
         result="fbSourceGraphic"
         id="feComposite1120-8" />
      <feColorMatrix
         result="fbSourceGraphicAlpha"
         in="fbSourceGraphic"
         values="0 0 0 -1 0 0 0 0 -1 0 0 0 0 -1 0 0 0 0 1 0"
         id="feColorMatrix1352" />
      <feFlood
         id="feFlood1354"
         flood-opacity="0.6"
         flood-color="rgb(0,0,0)"
         result="flood"
         in="fbSourceGraphic" />
      <feComposite
         in2="fbSourceGraphic"
         id="feComposite1356"
         in="flood"
         operator="in"
         result="composite1" />
      <feGaussianBlur
         id="feGaussianBlur1358"
         in="composite1"
         stdDeviation="0.2"
         result="blur" />
      <feOffset
         id="feOffset1360"
         dx="0"
         dy="0"
         result="offset" />
      <feComposite
         in2="offset"
         id="feComposite1362"
         in="fbSourceGraphic"
         operator="over"
         result="composite2" />
    </filter>
  </defs>
  <sodipodi:namedview
     inkscape:snap-global="false"
     inkscape:window-maximized="1"
     inkscape:window-y="-8"
     inkscape:window-x="-8"
     inkscape:window-height="1017"
     inkscape:window-width="1920"
     units="px"
     showgrid="false"
     inkscape:document-rotation="0"
     inkscape:current-layer="layer1"
     inkscape:document-units="mm"
     inkscape:cy="42.867302"
     inkscape:cx="27.593679"
     inkscape:zoom="6.030766"
     inkscape:pageshadow="2"
     inkscape:pageopacity="0.0"
     borderopacity="1.0"
     bordercolor="#666666"
     pagecolor="#ffffff"
     id="base" />
  <metadata
     id="metadata5">
    <rdf:RDF>
      <cc:Work
         rdf:about="">
        <dc:format>image/svg+xml</dc:format>
        <dc:type
           rdf:resource="http://purl.org/dc/dcmitype/StillImage" />
        <dc:title></dc:title>
      </cc:Work>
    </rdf:RDF>
  </metadata>
  <g
     id="layer1"
     inkscape:groupmode="layer"
     inkscape:label="Layer 1">
    <rect
       style="fill:#333333;fill-opacity:1;stroke:none;stroke-width:0.420686;stroke-linecap:round;stroke-linejoin:round;stroke-miterlimit:4;stroke-dasharray:none;stroke-opacity:1"
       id="rect989"
       width="16.933332"
       height="16.933332"
       x="0"
       y="0"
       ry="1.7718468" />
    <g
       id="g2706"
       transform="translate(0.30967413,0.2927702)">
      <ellipse
         style="fill:#359eb2;fill-opacity:1;stroke:#000000;stroke-width:0.106877;stroke-linecap:round;stroke-linejoin:round;stroke-opacity:1"
         id="path2560"
         cx="8.154911"
         cy="2.6446898"
         rx="3.9996612"
         ry="0.63732123" />
      <path
         id="path1452-0-3-4-2"
         style="fill:none;stroke:#000000;stroke-width:0.0642801;stroke-linecap:round;stroke-linejoin:round;stroke-miterlimit:4;stroke-dasharray:none;stroke-opacity:1"
         inkscape:transform-center-x="0.0064075222"
         inkscape:transform-center-y="6.3475516"
         d="M 9.2113453,2.1445902 C 9.1393074,1.1724534 8.0243845,15.396831 8.1693619,15.400846 8.3143392,15.404863 7.2131802,1.1190875 7.1402412,2.0872076"
         sodipodi:nodetypes="csc" />
      <path
         id="path1452-0-3-9-0-3"
         style="fill:none;stroke:#000000;stroke-width:0.0995004;stroke-linecap:round;stroke-linejoin:round;stroke-miterlimit:4;stroke-dasharray:none;stroke-opacity:1"
         inkscape:transform-center-x="0.026340262"
         inkscape:transform-center-y="6.7903972"
         d="M 11.570062,2.3157252 C 10.191876,6.2734522 7.6749413,15.3468 8.1260989,15.350052 8.5743153,15.353282 6.1250165,6.3622797 4.7555288,2.3448373"
         sodipodi:nodetypes="csc" />
      <path
         id="path1452-0-3-9-0"
         style="fill:none;stroke:#000000;stroke-width:0.0821696;stroke-linecap:round;stroke-linejoin:round;stroke-miterlimit:4;stroke-dasharray:none;stroke-opacity:1"
         inkscape:transform-center-x="0.017731066"
         inkscape:transform-center-y="6.879421"
         d="M 10.464951,2.1535069 C 9.5372159,6.1631208 7.8429262,15.355423 8.1466257,15.358717 8.4483454,15.36199 6.7995848,6.2531129 5.8777056,2.1830007"
         sodipodi:nodetypes="csc" />
      <path
         id="path1452-0-3"
         style="fill:#2a7c8c;fill-opacity:1;stroke:#000000;stroke-width:0.183825;stroke-linecap:round;stroke-linejoin:round;stroke-opacity:1"
         inkscape:transform-center-x="0.024559529"
         inkscape:transform-center-y="5.8274252"
         d="M 4.1877907,2.6072747 C 3.908215,3.4960653 12.402487,3.5524337 12.126363,2.6599554 11.850239,1.7674768 7.5767246,15.353275 8.1324246,15.356963 8.6881248,15.360652 4.4673666,1.7184838 4.1877907,2.6072747 Z" />
      <path
         id="path1452-0-7-6"
         style="fill:none;stroke:#000000;stroke-width:0.135003;stroke-linecap:round;stroke-linejoin:round;stroke-opacity:1"
         inkscape:transform-center-x="0.017150691"
         inkscape:transform-center-y="4.5008702"
         d="M 5.3778098,5.3825778 C 5.1825745,6.0690437 11.114353,6.1125803 10.921528,5.4232658 10.728703,4.7339514 7.7443931,15.227076 8.1324536,15.229925 8.520514,15.232775 5.573045,4.6961114 5.3778098,5.3825778 Z" />
      <path
         id="path1452-0-7-5-8"
         style="fill:none;stroke:#000000;stroke-width:0.090499;stroke-linecap:round;stroke-linejoin:round;stroke-opacity:1"
         inkscape:transform-center-x="0.011096712"
         inkscape:transform-center-y="3.125969"
         d="M 6.3501583,8.2569995 C 6.2238379,8.7337679 10.0618,8.7640051 9.937039,8.2852588 9.8122772,7.806512 7.8813783,15.094256 8.1324598,15.096234 8.3835415,15.098212 6.4764789,7.7802312 6.3501583,8.2569995 Z" />
      <path
         id="path1452-0-0-26"
         style="fill:none;stroke:#000000;stroke-width:0.0625068;stroke-linecap:round;stroke-linejoin:round;stroke-opacity:1"
         inkscape:transform-center-x="0.007603851"
         inkscape:transform-center-y="2.1763646"
         d="m 6.9111834,10.24421 c -0.086559,0.331927 2.5433228,0.352976 2.4578328,0.01959 -0.08549,-0.3333024 -1.4085971,4.740392 -1.2365489,4.74177 0.1720491,0.0014 -1.1347255,-5.0933704 -1.2212839,-4.761445 z" />
      <path
         id="path1452-0-7-2-3"
         style="fill:none;stroke:#000000;stroke-width:0.0459057;stroke-linecap:round;stroke-linejoin:round;stroke-opacity:1"
         inkscape:transform-center-x="0.0053100489"
         inkscape:transform-center-y="1.6808812"
         d="m 7.2796209,11.280663 c -0.060447,0.256366 1.7760708,0.272625 1.716371,0.01529 -0.0597,-0.25743 -0.9836613,3.66129 -0.8635154,3.662352 0.1201464,0.0011 -0.7924094,-3.933913 -0.8528556,-3.677549 z" />
      <path
         id="path1452-0-7-5-3-43"
         style="fill:none;stroke:#000000;stroke-width:0.0307729;stroke-linecap:round;stroke-linejoin:round;stroke-opacity:1"
         inkscape:transform-center-x="0.0034357046"
         inkscape:transform-center-y="1.1673986"
         d="m 7.5806663,12.354133 c -0.03911,0.178054 1.1491481,0.189345 1.1105212,0.01047 -0.038627,-0.178787 -0.6364456,2.542862 -0.5587093,2.543601 0.077738,7.4e-4 -0.5127023,-2.732204 -0.5518119,-2.554153 z" />
      <path
         id="path1452-0-9-3"
         style="fill:none;stroke:#000000;stroke-width:0.0216857;stroke-linecap:round;stroke-linejoin:round;stroke-opacity:1"
         inkscape:transform-center-x="0.0025213132"
         inkscape:transform-center-y="0.78999639"
         d="m 7.7275232,13.141668 c -0.028701,0.120495 0.8432983,0.128135 0.8149524,0.0071 -0.028348,-0.120975 -0.4670536,1.72079 -0.4100072,1.721289 0.057047,5.01e-4 -0.3762447,-1.848913 -0.4049452,-1.728422 z" />
      <path
         id="path1452-0-7-4-4"
         style="fill:none;stroke:#000000;stroke-width:0.0159261;stroke-linecap:round;stroke-linejoin:round;stroke-opacity:1"
         inkscape:transform-center-x="0.0017607094"
         inkscape:transform-center-y="0.61015769"
         d="m 7.8496873,13.517904 c -0.020041,0.09306 0.5888981,0.09896 0.5691032,0.0055 -0.019794,-0.09344 -0.326156,1.329068 -0.2863192,1.329456 0.039836,3.85e-4 -0.2627418,-1.428026 -0.282784,-1.334964 z" />
      <path
         id="path1452-0-7-5-0-6"
         style="fill:none;stroke:#000000;stroke-width:0.0106761;stroke-linecap:round;stroke-linejoin:round;stroke-opacity:1"
         inkscape:transform-center-x="0.0011390901"
         inkscape:transform-center-y="0.42377014"
         d="m 7.9495059,13.907577 c -0.01297,0.06463 0.381027,0.06874 0.3682195,0.0039 -0.01281,-0.06491 -0.2110286,0.923069 -0.1852533,0.923336 0.025775,2.69e-4 -0.1699986,-0.9918 -0.1829662,-0.927168 z" />
      <path
         id="path1452-0-3-9"
         style="fill:none;stroke:#000000;stroke-width:0.163084;stroke-linecap:round;stroke-linejoin:round;stroke-opacity:1"
         inkscape:transform-center-x="0.019296655"
         inkscape:transform-center-y="5.8378033"
         d="M 5.043678,2.5959586 C 4.8240206,3.4863319 11.497812,3.5428008 11.280864,2.6487331 11.06392,1.7546651 7.7062997,15.36466 8.142903,15.368353 8.5795061,15.372046 5.2633355,1.7055847 5.043678,2.5959586 Z" />
      <path
         id="path1452-0-3-4"
         style="fill:none;stroke:#000000;stroke-width:0.116169;stroke-linecap:round;stroke-linejoin:round;stroke-opacity:1"
         inkscape:transform-center-x="0.0097517801"
         inkscape:transform-center-y="5.8612804"
         d="M 6.5956766,2.5703602 C 6.4846687,3.4643141 9.8573951,3.5210099 9.7477571,2.6233468 9.6381201,1.7256831 7.941283,15.390411 8.1619287,15.394119 8.3825744,15.397828 6.7066848,1.6764055 6.5956766,2.5703602 Z" />
    </g>
  </g>
</svg>

<svg width="64" height="64" version="1.1" viewBox="0 0 16.9 16.9" xmlns="http://www.w3.org/2000/svg">
 <rect width="16.9" height="16.9" ry="1.77" fill="#333"/>
 <g transform="translate(.31 .293)" stroke="#000" stroke-linecap="round" stroke-linejoin="round">
  <ellipse cx="8.15" cy="2.64" rx="4" ry=".637" fill="#359eb2" stroke-width=".107"/>
  <path d="m9.21 2.14c-.072-.972-1.19 13.3-1.04 13.3.145.00402-.956-14.3-1.03-13.3" fill="none" stroke-width=".0643"/>
  <path d="m11.6 2.32c-1.38 3.96-3.9 13-3.44 13 .448.00323-2-8.99-3.37-13" fill="none" stroke-width=".0995"/>
  <path d="m10.5 2.15c-.928 4.01-2.62 13.2-2.32 13.2.302.00327-1.35-9.11-2.27-13.2" fill="none" stroke-width=".0822"/>
  <path d="m4.19 2.61c-.28.889 8.21.945 7.94.0527-.276-.892-4.55 12.7-3.99 12.7.556.00369-3.67-13.6-3.94-12.7z" fill="#2a7c8c" stroke-width=".184"/>
  <path d="m5.38 5.38c-.195.686 5.74.73 5.54.0407-.193-.689-3.18 9.8-2.79 9.81.388.00285-2.56-10.5-2.75-9.85z" fill="none" stroke-width=".135"/>
  <path d="m6.35 8.26c-.126.477 3.71.507 3.59.0283-.125-.479-2.06 6.81-1.8 6.81.251.00198-1.66-7.32-1.78-6.84z" fill="none" stroke-width=".0905"/>
  <path d="m6.91 10.2c-.0866.332 2.54.353 2.46.0196-.0855-.333-1.41 4.74-1.24 4.74.172.0014-1.13-5.09-1.22-4.76z" fill="none" stroke-width=".0625"/>
  <path d="m7.28 11.3c-.0604.256 1.78.273 1.72.0153-.0597-.257-.984 3.66-.864 3.66.12.0011-.792-3.93-.853-3.68z" fill="none" stroke-width=".0459"/>
  <path d="m7.58 12.4c-.0391.178 1.15.189 1.11.0105-.0386-.179-.636 2.54-.559 2.54.0777.00074-.513-2.73-.552-2.55z" fill="none" stroke-width=".0308"/>
  <path d="m7.73 13.1c-.0287.12.843.128.815.0071-.0283-.121-.467 1.72-.41 1.72.057.000501-.376-1.85-.405-1.73z" fill="none" stroke-width=".0217"/>
  <path d="m7.85 13.5c-.02.0931.589.099.569.0055-.0198-.0934-.326 1.33-.286 1.33.0398.000385-.263-1.43-.283-1.33z" fill="none" stroke-width=".0159"/>
  <path d="m7.95 13.9c-.013.0646.381.0687.368.0039-.0128-.0649-.211.923-.185.923.0258.000269-.17-.992-.183-.927z" fill="none" stroke-width=".0107"/>
  <path d="m5.04 2.6c-.22.89 6.45.947 6.24.0528-.217-.894-3.57 12.7-3.14 12.7.437.00369-2.88-13.7-3.1-12.8z" fill="none" stroke-width=".163"/>
  <path d="m6.6 2.57c-.111.894 3.26.951 3.15.053-.11-.898-1.81 12.8-1.59 12.8.221.00371-1.46-13.7-1.57-12.8z" fill="none" stroke-width=".116"/>
 </g>
</svg>
